X:22
T:Si nous partageons - D151bis
C:M. Wackenheim
M:C
L:1/8
K:Em
"Mim"EE FG "Sim"FF ED|"Mim"E2FE"Sim"B,4|"Mim"E2FG "Sim"FF ED |"Mim"E E FG"Re"A4|
"Sol"B2B2"Re"A2BA |"Mim"GG FE "Sim"F4|"Sol"B2B2"Re"A2BA|"Mim"GG "Sim"FF"Mim"E4||
